; generated by PrusaSlicer 2.3.3+x64 on 2021-11-14 at 00:04:11 UTC

; 

; external perimeters extrusion width = 0.45mm
; perimeters extrusion width = 0.45mm
; infill extrusion width = 0.45mm
; solid infill extrusion width = 0.45mm
; top infill extrusion width = 0.40mm
; first layer extrusion width = 0.42mm

M73 P0 R483
M73 Q0 S484
M201 X1000 Y1000 Z200 E5000 ; sets maximum accelerations, mm/sec^2
M203 X200 Y200 Z12 E120 ; sets maximum feedrates, mm/sec
M204 P1250 R1250 T1250 ; sets acceleration (P, T) and retract acceleration (R), mm/sec^2
M205 X8.00 Y8.00 Z0.40 E4.50 ; sets the jerk limits, mm/sec
M205 S0 T0 ; sets the minimum extruding and travel feed rate, mm/sec
M107
;TYPE:Custom
M862.3 P "MK3S" ; printer model check
M862.1 P0.4 ; nozzle diameter check
M115 U3.10.0 ; tell printer latest fw version
G90 ; use absolute coordinates
M83 ; extruder relative mode
M104 S240 ; set extruder temp
M140 S50 ; set bed temp
M190 S50 ; wait for bed temp
M109 S240 ; wait for extruder temp
G28 W ; home all without mesh bed level
G80 ; mesh bed leveling
G1 Y-3.0 F1000.0 ; go outside print area
G92 E0.0
G1 X60.0 E9.0 F1000.0 ; intro line
G1 X100.0 E12.5 F1000.0 ; intro line
G92 E0.0
M221 S95

; Don't change E values below. Excessive value can damage the printer.

M907 E538 ; set extruder motor current
G21 ; set units to millimeters
G90 ; use absolute coordinates
M83 ; use relative distances for extrusion
M900 K0
;LAYER_CHANGE
;Z:0.2
;HEIGHT:0.2
;BEFORE_LAYER_CHANGE
G92 E0.0
;0.2


G1 E-1.20000 F2100.000
G1 Z0.200 F10800.000
;AFTER_LAYER_CHANGE
;0.2
G1 X40.191 Y13.056
G1 E1.20000 F1200.000
M204 S1000
;TYPE:Skirt
;WIDTH:0.42
G1 F1074.044
G1 X40.968 Y12.923 E0.02769
G1 X194.618 Y12.923 E5.39570
G1 X237.535 Y14.865 E1.50864
G1 X238.274 Y15.050 E0.02677
G1 X238.917 Y15.461 E0.02677
G1 X239.396 Y16.053 E0.02677
G1 X239.663 Y16.764 E0.02664
G1 X239.710 Y42.544 E0.90534
G1 X238.996 Y157.499 E4.03692
G1 X232.566 Y195.135 E1.34081
G1 X232.265 Y195.928 E0.02980
G1 X231.706 Y196.563 E0.02967
G1 X231.027 Y196.939 E0.02730
G1 X230.258 Y197.077 E0.02743
G1 X194.404 Y196.993 E1.25906
G1 X12.184 Y159.720 E6.53150
G1 X11.420 Y159.416 E0.02888
G1 X10.805 Y158.870 E0.02888
G1 X10.433 Y158.204 E0.02677
G1 X10.291 Y157.459 E0.02664
G1 X10.313 Y141.226 E0.57007
G1 X26.149 Y48.846 E3.29138
G1 X38.252 Y14.963 E1.26351
G1 X38.636 Y14.296 E0.02703
G1 X39.497 Y13.439 E0.04267
G1 X40.139 Y13.085 E0.02572
; printing object EVAFoam_2h.stl id:0 copy 0
G1 E-1.20000 F2100.000
G1 X211.776 Y190.224 F10800.000
M73 P0 R482
G1 E1.20000 F1200.000
;TYPE:Perimeter
G1 F1074.044
G1 X213.260 Y190.224 E0.05209
G1 X212.518 Y191.496 E0.05171
G1 X211.807 Y190.276 E0.04961
G1 X211.120 Y189.847 F10800.000
;TYPE:External perimeter
G1 F1074.044
G1 X213.916 Y189.847 E0.09819
G1 X212.518 Y192.245 E0.09746
G1 X211.150 Y189.899 E0.09537
G1 X210.920 Y190.193 F10800.000
G1 E-1.20000 F2100.000
G1 X212.155 Y190.337 F10800.000
G1 E1.20000 F1200.000
;TYPE:Solid infill
;WIDTH:0.495415
G1 F895.037
G1 X212.728 Y190.911 E0.03420
G1 E-1.20000 F2100.000
G1 X213.260 Y163.277 F10800.000
G1 E1.20000 F1200.000
;TYPE:Perimeter
;WIDTH:0.42
G1 F1074.044
G1 X211.776 Y163.277 E0.05209
G1 X212.518 Y162.005 E0.05171
G1 X213.230 Y163.225 E0.04960
G1 X213.916 Y163.654 F10800.000
;TYPE:External perimeter
G1 F1074.044
G1 X211.120 Y163.654 E0.09819
G1 X212.518 Y161.256 E0.09748
G1 X213.886 Y163.602 E0.09536
G1 X214.116 Y163.308 F10800.000
G1 E-1.20000 F2100.000
G1 X212.179 Y162.812 F10800.000
G1 E1.20000 F1200.000
;TYPE:Solid infill
;WIDTH:0.495415
G1 F895.037
G1 X212.530 Y163.164 E0.02096
G1 E-1.20000 F2100.000
G1 X31.045 Y153.439 F10800.000
G1 E1.20000 F1200.000
;TYPE:Perimeter
;WIDTH:0.42
G1 F1074.044
G1 X35.666 Y153.439 E0.16227
G1 X36.293 Y151.742 E0.06354
G1 X36.293 Y151.339 E0.01414
G1 X47.083 Y151.339 E0.37894
G1 X47.083 Y151.742 E0.01414
G1 X47.710 Y153.439 E0.06354
G1 X52.332 Y153.439 E0.16232
G1 X52.958 Y151.741 E0.06353
G1 X52.958 Y151.339 E0.01413
G1 X63.749 Y151.339 E0.37897
G1 X63.749 Y151.742 E0.01415
G1 X64.378 Y153.439 E0.06355
G1 X68.997 Y153.439 E0.16222
G1 X69.624 Y151.742 E0.06354
M73 Q0 S483
G1 X69.624 Y151.339 E0.01414
G1 X80.416 Y151.339 E0.37901
G1 X80.416 Y151.742 E0.01414
G1 X81.043 Y153.439 E0.06354
G1 X85.664 Y153.439 E0.16227
G1 X86.291 Y151.742 E0.06354
G1 X86.291 Y151.339 E0.01414
G1 X97.081 Y151.339 E0.37894
G1 X97.081 Y151.742 E0.01414
G1 X97.708 Y153.439 E0.06354
G1 X102.330 Y153.439 E0.16232
G1 X102.956 Y151.741 E0.06353
G1 X102.956 Y151.339 E0.01412
G1 X113.747 Y151.339 E0.37898
G1 X113.747 Y151.742 E0.01415
G1 X114.376 Y153.439 E0.06355
G1 X118.995 Y153.439 E0.16222
G1 X119.622 Y151.742 E0.06354
G1 X119.622 Y151.339 E0.01414
G1 X130.414 Y151.339 E0.37901
G1 X130.414 Y151.742 E0.01414
G1 X131.041 Y153.439 E0.06354
G1 X135.662 Y153.439 E0.16227
G1 X136.289 Y151.742 E0.06354
G1 X136.289 Y151.339 E0.01414
G1 X147.080 Y151.339 E0.37898
G1 X147.080 Y151.741 E0.01412
G1 X147.706 Y153.439 E0.06353
G1 X152.328 Y153.439 E0.16232
G1 X152.955 Y151.742 E0.06354
G1 X152.955 Y151.339 E0.01414
G1 X163.745 Y151.339 E0.37894
G1 X163.745 Y151.742 E0.01414
G1 X164.372 Y153.439 E0.06354
G1 X168.993 Y153.439 E0.16227
G1 X169.620 Y151.742 E0.06354
G1 X169.620 Y151.339 E0.01414
G1 X180.412 Y151.339 E0.37901
G1 X180.412 Y151.742 E0.01414
G1 X181.039 Y153.439 E0.06354
G1 X185.658 Y153.439 E0.16222
G1 X186.287 Y151.742 E0.06355
G1 X186.287 Y151.339 E0.01415
G1 X197.078 Y151.339 E0.37898
G1 X197.078 Y151.741 E0.01413
G1 X197.704 Y153.439 E0.06353
G1 X202.326 Y153.439 E0.16232
G1 X202.953 Y151.742 E0.06354
G1 X202.953 Y151.339 E0.01414
G1 X213.743 Y151.339 E0.37894
G1 X213.743 Y151.742 E0.01415
G1 X214.372 Y153.439 E0.06355
G1 X218.991 Y153.439 E0.16222
G1 X219.618 Y151.742 E0.06354
G1 X219.618 Y151.339 E0.01414
G1 X235.834 Y151.339 E0.56948
G1 X235.834 Y156.606 E0.18495
G1 X13.455 Y156.606 E7.80927
G1 X13.455 Y151.339 E0.18495
G1 X30.418 Y151.339 E0.59572
G1 X30.418 Y151.742 E0.01414
G1 X31.024 Y153.383 E0.06143
G1 X31.308 Y153.062 F10800.000
;TYPE:External perimeter
G1 F1074.044
G1 X35.403 Y153.062 E0.14382
G1 X35.915 Y151.674 E0.05195
G1 X35.915 Y150.962 E0.02501
G1 X47.460 Y150.962 E0.40542
G1 X47.460 Y151.674 E0.02501
G1 X47.973 Y153.062 E0.05195
G1 X52.069 Y153.062 E0.14386
G1 X52.581 Y151.674 E0.05194
G1 X52.581 Y150.962 E0.02501
G1 X64.126 Y150.962 E0.40546
G1 X64.126 Y151.674 E0.02502
G1 X64.640 Y153.062 E0.05196
G1 X68.734 Y153.062 E0.14377
G1 X69.246 Y151.674 E0.05195
G1 X69.246 Y150.962 E0.02501
G1 X80.793 Y150.962 E0.40549
G1 X80.793 Y151.674 E0.02501
G1 X81.306 Y153.062 E0.05195
G1 X85.401 Y153.062 E0.14382
G1 X85.913 Y151.674 E0.05195
G1 X85.913 Y150.962 E0.02501
G1 X97.458 Y150.962 E0.40542
G1 X97.458 Y151.674 E0.02501
G1 X97.971 Y153.062 E0.05195
G1 X102.067 Y153.062 E0.14386
G1 X102.578 Y151.674 E0.05194
G1 X102.578 Y150.962 E0.02501
G1 X114.124 Y150.962 E0.40546
G1 X114.124 Y151.674 E0.02502
G1 X114.638 Y153.062 E0.05196
G1 X118.732 Y153.062 E0.14377
G1 X119.244 Y151.674 E0.05195
G1 X119.244 Y150.962 E0.02501
G1 X130.791 Y150.962 E0.40549
G1 X130.791 Y151.674 E0.02501
G1 X131.304 Y153.062 E0.05195
G1 X135.399 Y153.062 E0.14382
G1 X135.911 Y151.674 E0.05195
G1 X135.911 Y150.962 E0.02501
G1 X147.457 Y150.962 E0.40546
G1 X147.457 Y151.674 E0.02501
G1 X147.969 Y153.062 E0.05194
G1 X152.065 Y153.062 E0.14386
G1 X152.577 Y151.674 E0.05195
G1 X152.577 Y150.962 E0.02501
G1 X164.122 Y150.962 E0.40542
G1 X164.122 Y151.674 E0.02501
G1 X164.635 Y153.062 E0.05195
G1 X168.730 Y153.062 E0.14382
G1 X169.242 Y151.674 E0.05195
G1 X169.242 Y150.962 E0.02501
G1 X180.789 Y150.962 E0.40549
G1 X180.789 Y151.674 E0.02501
G1 X181.302 Y153.062 E0.05195
G1 X185.396 Y153.062 E0.14377
G1 X185.909 Y151.674 E0.05196
G1 X185.909 Y150.962 E0.02502
G1 X197.455 Y150.962 E0.40546
G1 X197.455 Y151.674 E0.02501
G1 X197.967 Y153.062 E0.05194
G1 X202.063 Y153.062 E0.14386
G1 X202.575 Y151.674 E0.05195
G1 X202.575 Y150.962 E0.02501
G1 X214.121 Y150.962 E0.40542
G1 X214.121 Y151.674 E0.02502
G1 X214.634 Y153.062 E0.05196
G1 X218.728 Y153.062 E0.14377
G1 X219.240 Y151.674 E0.05195
G1 X219.240 Y150.962 E0.02501
G1 X236.211 Y150.962 E0.59597
G1 X236.211 Y156.983 E0.21144
G1 X13.077 Y156.983 E7.83575
G1 X13.077 Y150.962 E0.21144
G1 X30.795 Y150.962 E0.62220
M73 P0 R481
G1 X30.795 Y151.674 E0.02501
G1 X31.287 Y153.006 E0.04984
G1 X31.340 Y153.461 F10800.000
G1 E-1.20000 F2100.000
G1 X235.721 Y152.215 F10800.000
G1 E1.20000 F1200.000
;TYPE:Solid infill
;WIDTH:0.420159
G1 F1073.590
G1 X235.128 Y151.622 E0.02946
G1 X234.595 Y151.622 E0.01874
G1 X235.552 Y152.579 E0.04753
G1 X235.552 Y153.112 E0.01874
G1 X234.061 Y151.622 E0.07404
G1 X233.528 Y151.622 E0.01874
G1 X235.552 Y153.646 E0.10055
G1 X235.552 Y154.179 E0.01874
G1 X232.994 Y151.622 E0.12705
G1 X232.461 Y151.622 E0.01874
G1 X235.552 Y154.713 E0.15356
G1 X235.552 Y155.246 E0.01874
G1 X231.927 Y151.622 E0.18006
G1 X231.394 Y151.622 E0.01874
G1 X235.552 Y155.780 E0.20657
G1 X235.552 Y156.313 E0.01874
G1 X230.860 Y151.622 E0.23308
G1 X230.327 Y151.622 E0.01874
G1 X235.028 Y156.323 E0.23358
G1 X234.495 Y156.323 E0.01874
G1 X229.793 Y151.622 E0.23358
G1 X229.260 Y151.622 E0.01874
G1 X233.961 Y156.323 E0.23358
G1 X233.428 Y156.323 E0.01874
G1 X228.726 Y151.622 E0.23358
G1 X228.193 Y151.622 E0.01874
G1 X232.894 Y156.323 E0.23358
G1 X232.361 Y156.323 E0.01874
G1 X227.659 Y151.622 E0.23358
M73 Q0 S482
G1 X227.126 Y151.622 E0.01874
G1 X231.827 Y156.323 E0.23358
G1 X231.294 Y156.323 E0.01874
G1 X226.592 Y151.622 E0.23358
G1 X226.059 Y151.622 E0.01874
G1 X230.760 Y156.323 E0.23358
G1 X230.227 Y156.323 E0.01874
G1 X225.525 Y151.622 E0.23358
G1 X224.992 Y151.622 E0.01874
G1 X229.693 Y156.323 E0.23358
G1 X229.160 Y156.323 E0.01874
G1 X224.458 Y151.622 E0.23358
G1 X223.925 Y151.622 E0.01874
G1 X228.626 Y156.323 E0.23358
G1 X228.093 Y156.323 E0.01874
G1 X223.391 Y151.622 E0.23358
G1 X222.858 Y151.622 E0.01874
G1 X227.559 Y156.323 E0.23358
G1 X227.026 Y156.323 E0.01874
G1 X222.324 Y151.622 E0.23358
G1 X221.791 Y151.622 E0.01874
G1 X226.492 Y156.323 E0.23358
G1 X225.959 Y156.323 E0.01874
G1 X221.257 Y151.622 E0.23358
G1 X220.724 Y151.622 E0.01874
G1 X225.425 Y156.323 E0.23358
G1 X224.892 Y156.323 E0.01874
G1 X220.190 Y151.622 E0.23358
G1 X219.900 Y151.622 E0.01019
G1 X219.900 Y151.792 E0.00598
G1 X219.881 Y151.846 E0.00200
G1 X224.358 Y156.323 E0.22246
G1 X223.825 Y156.323 E0.01874
G1 X219.737 Y152.235 E0.20310
G1 X219.593 Y152.625 E0.01459
G1 X223.291 Y156.323 E0.18374
G1 X222.758 Y156.323 E0.01874
G1 X219.449 Y153.014 E0.16439
G1 X219.305 Y153.404 E0.01459
G1 X222.224 Y156.323 E0.14503
G1 X221.691 Y156.323 E0.01874
G1 X219.090 Y153.722 E0.12924
G1 X218.556 Y153.722 E0.01874
G1 X221.157 Y156.323 E0.12924
G1 X220.624 Y156.323 E0.01874
G1 X218.023 Y153.722 E0.12924
G1 X217.489 Y153.722 E0.01874
G1 X220.090 Y156.323 E0.12924
G1 X219.557 Y156.323 E0.01874
G1 X216.956 Y153.722 E0.12924
G1 X216.422 Y153.722 E0.01874
G1 X219.023 Y156.323 E0.12924
G1 X218.490 Y156.323 E0.01874
G1 X215.889 Y153.722 E0.12924
G1 X215.355 Y153.722 E0.01874
G1 X217.956 Y156.323 E0.12924
G1 X217.423 Y156.323 E0.01874
G1 X214.652 Y153.552 E0.13767
G1 E-1.20000 F2100.000
G1 X213.768 Y152.135 F10800.000
G1 E1.20000 F1200.000
G1 F1073.590
G1 X213.255 Y151.622 E0.02550
G1 X212.722 Y151.622 E0.01874
G1 X214.082 Y152.982 E0.06759
G1 E-1.20000 F2100.000
G1 X212.018 Y151.452 F10800.000
G1 E1.20000 F1200.000
G1 F1073.590
G1 X216.889 Y156.323 E0.24201
G1 X216.356 Y156.323 E0.01874
G1 X211.655 Y151.622 E0.23358
G1 X211.121 Y151.622 E0.01874
G1 X215.822 Y156.323 E0.23358
G1 X215.289 Y156.323 E0.01874
G1 X210.588 Y151.622 E0.23358
G1 X210.054 Y151.622 E0.01874
G1 X214.755 Y156.323 E0.23358
G1 X214.222 Y156.323 E0.01874
G1 X209.521 Y151.622 E0.23358
G1 X208.987 Y151.622 E0.01874
G1 X213.688 Y156.323 E0.23358
G1 X213.155 Y156.323 E0.01874
G1 X208.454 Y151.622 E0.23358
G1 X207.920 Y151.622 E0.01874
G1 X212.621 Y156.323 E0.23358
G1 X212.088 Y156.323 E0.01874
G1 X207.387 Y151.622 E0.23358
G1 X206.853 Y151.622 E0.01874
G1 X211.554 Y156.323 E0.23358
G1 X211.021 Y156.323 E0.01874
G1 X206.320 Y151.622 E0.23358
G1 X205.786 Y151.622 E0.01874
G1 X210.487 Y156.323 E0.23358
G1 X209.954 Y156.323 E0.01874
G1 X205.253 Y151.622 E0.23358
G1 X204.719 Y151.622 E0.01874
G1 X209.420 Y156.323 E0.23358
G1 X208.887 Y156.323 E0.01874
G1 X204.186 Y151.622 E0.23358
G1 X203.652 Y151.622 E0.01874
G1 X208.353 Y156.323 E0.23358
G1 X207.820 Y156.323 E0.01874
G1 X203.235 Y151.739 E0.22777
G1 X203.235 Y151.792 E0.00188
G1 X203.106 Y152.143 E0.01313
G1 X207.286 Y156.323 E0.20770
G1 X206.753 Y156.323 E0.01874
G1 X202.962 Y152.532 E0.18834
G1 X202.818 Y152.922 E0.01459
G1 X206.219 Y156.323 E0.16898
G1 X205.686 Y156.323 E0.01874
G1 X202.674 Y153.312 E0.14962
G1 X202.531 Y153.701 E0.01459
G1 X205.152 Y156.323 E0.13026
G1 X204.619 Y156.323 E0.01874
G1 X202.018 Y153.722 E0.12924
G1 X201.484 Y153.722 E0.01874
G1 X204.085 Y156.323 E0.12924
G1 X203.552 Y156.323 E0.01874
G1 X200.951 Y153.722 E0.12924
G1 X200.417 Y153.722 E0.01874
G1 X203.018 Y156.323 E0.12924
G1 X202.485 Y156.323 E0.01874
G1 X199.884 Y153.722 E0.12924
G1 X199.350 Y153.722 E0.01874
G1 X201.951 Y156.323 E0.12924
G1 X201.418 Y156.323 E0.01874
G1 X198.817 Y153.722 E0.12924
G1 X198.283 Y153.722 E0.01874
G1 X201.054 Y156.493 E0.13767
G1 E-1.20000 F2100.000
G1 X197.029 Y151.934 F10800.000
G1 E1.20000 F1200.000
G1 F1073.590
G1 X196.717 Y151.622 E0.01551
G1 X196.183 Y151.622 E0.01874
G1 X197.340 Y152.779 E0.05747
G1 E-1.20000 F2100.000
G1 X195.480 Y151.452 F10800.000
G1 E1.20000 F1200.000
G1 F1073.590
G1 X200.351 Y156.323 E0.24201
G1 X199.817 Y156.323 E0.01874
G1 X195.116 Y151.622 E0.23358
G1 X194.583 Y151.622 E0.01874
G1 X199.284 Y156.323 E0.23358
G1 X198.750 Y156.323 E0.01874
G1 X194.049 Y151.622 E0.23358
G1 X193.516 Y151.622 E0.01874
G1 X198.217 Y156.323 E0.23358
G1 X197.683 Y156.323 E0.01874
G1 X192.982 Y151.622 E0.23358
G1 X192.449 Y151.622 E0.01874
G1 X197.150 Y156.323 E0.23358
G1 X196.616 Y156.323 E0.01874
G1 X191.915 Y151.622 E0.23358
G1 X191.382 Y151.622 E0.01874
G1 X196.083 Y156.323 E0.23358
G1 X195.549 Y156.323 E0.01874
G1 X190.848 Y151.622 E0.23358
G1 X190.315 Y151.622 E0.01874
G1 X195.016 Y156.323 E0.23358
G1 X194.482 Y156.323 E0.01874
G1 X189.781 Y151.622 E0.23358
G1 X189.248 Y151.622 E0.01874
G1 X193.949 Y156.323 E0.23358
G1 X193.415 Y156.323 E0.01874
G1 X188.714 Y151.622 E0.23358
G1 X188.181 Y151.622 E0.01874
G1 X192.882 Y156.323 E0.23358
G1 X192.348 Y156.323 E0.01874
G1 X187.647 Y151.622 E0.23358
G1 X187.114 Y151.622 E0.01874
G1 X191.815 Y156.323 E0.23358
G1 X191.281 Y156.323 E0.01874
G1 X186.569 Y151.622 E0.23385
G1 X186.569 Y151.793 E0.00600
G1 X186.474 Y152.049 E0.00962
G1 X190.748 Y156.323 E0.21233
G1 X190.214 Y156.323 E0.01874
G1 X186.330 Y152.439 E0.19299
G1 X186.186 Y152.828 E0.01459
G1 X189.681 Y156.323 E0.17364
G1 X189.147 Y156.323 E0.01874
G1 X186.042 Y153.218 E0.15429
G1 X185.898 Y153.607 E0.01459
G1 X188.614 Y156.323 E0.13495
G1 X188.080 Y156.323 E0.01874
G1 X185.479 Y153.722 E0.12924
G1 X184.946 Y153.722 E0.01874
G1 X187.547 Y156.323 E0.12924
G1 X187.013 Y156.323 E0.01874
G1 X184.412 Y153.722 E0.12924
G1 X183.879 Y153.722 E0.01874
G1 X186.480 Y156.323 E0.12924
G1 X185.946 Y156.323 E0.01874
G1 X183.345 Y153.722 E0.12924
G1 X182.812 Y153.722 E0.01874
G1 X185.413 Y156.323 E0.12924
G1 X184.880 Y156.323 E0.01874
G1 X182.278 Y153.722 E0.12924
G1 X181.745 Y153.722 E0.01874
G1 X184.516 Y156.493 E0.13767
G1 E-1.20000 F2100.000
G1 X180.600 Y152.578 F10800.000
G1 E1.20000 F1200.000
G1 F1073.590
G1 X179.645 Y151.622 E0.04748
G1 X179.111 Y151.622 E0.01874
G1 X180.626 Y153.137 E0.07526
G1 X180.842 Y153.722 E0.02192
G1 X181.211 Y153.722 E0.01297
G1 X183.813 Y156.323 E0.12924
G1 X183.279 Y156.323 E0.01874
G1 X178.578 Y151.622 E0.23358
G1 X178.044 Y151.622 E0.01874
G1 X182.746 Y156.323 E0.23358
G1 X182.212 Y156.323 E0.01874
G1 X177.511 Y151.622 E0.23358
G1 X176.977 Y151.622 E0.01874
G1 X181.679 Y156.323 E0.23358
G1 X181.145 Y156.323 E0.01874
G1 X176.444 Y151.622 E0.23358
G1 X175.910 Y151.622 E0.01874
G1 X180.612 Y156.323 E0.23358
G1 X180.078 Y156.323 E0.01874
G1 X175.377 Y151.622 E0.23358
