; generated by PrusaSlicer 2.3.3+x64 on 2021-11-13 at 23:52:13 UTC

; 

; external perimeters extrusion width = 0.60mm
; perimeters extrusion width = 0.50mm
; infill extrusion width = 0.50mm
; solid infill extrusion width = 0.50mm
; top infill extrusion width = 0.45mm
; first layer extrusion width = 0.42mm

M73 P0 R145
M73 Q0 S145
M201 X1000 Y1000 Z200 E5000 ; sets maximum accelerations, mm/sec^2
M203 X200 Y200 Z12 E120 ; sets maximum feedrates, mm/sec
M204 P1250 R1250 T1250 ; sets acceleration (P, T) and retract acceleration (R), mm/sec^2
M205 X8.00 Y8.00 Z0.40 E4.50 ; sets the jerk limits, mm/sec
M205 S0 T0 ; sets the minimum extruding and travel feed rate, mm/sec
M107
;TYPE:Custom
M862.3 P "MK3S" ; printer model check
M862.1 P0.4 ; nozzle diameter check
M115 U3.10.0 ; tell printer latest fw version
G90 ; use absolute coordinates
M83 ; extruder relative mode
M104 S240 ; set extruder temp
M140 S85 ; set bed temp
M190 S85 ; wait for bed temp
M109 S240 ; wait for extruder temp
G28 W ; home all without mesh bed level
G80 ; mesh bed leveling
G1 Y-3.0 F1000.0 ; go outside print area
G92 E0.0
G1 X60.0 E9.0 F1000.0 ; intro line
G1 X100.0 E12.5 F1000.0 ; intro line
G92 E0.0
M221 S95

; Don't change E values below. Excessive value can damage the printer.

M907 E538 ; set extruder motor current
G21 ; set units to millimeters
G90 ; use absolute coordinates
M83 ; use relative distances for extrusion
M900 K0.08 ; Filament gcode LA 1.5
M900 K45 ; Filament gcode LA 1.0
;LAYER_CHANGE
;Z:0.2
;HEIGHT:0.2
;BEFORE_LAYER_CHANGE
G92 E0.0
;0.2


G1 E-1.00000 F2100.000
G1 Z0.200 F10800.000
;AFTER_LAYER_CHANGE
;0.2
G1 Z0.400
G1 X201.181 Y7.066
G1 Z0.200
G1 E1.00000 F2100.000
M204 S1000
;TYPE:Skirt
;WIDTH:0.42
G1 F1200.000
G1 X213.293 Y8.996 E0.38455
G1 X214.005 Y9.268 E0.02390
G1 X214.883 Y9.922 E0.03433
G1 X221.515 Y19.358 E0.36164
G1 X247.896 Y57.842 E1.46292
G1 X248.130 Y58.273 E0.01538
G1 X248.394 Y59.192 E0.02998
G1 X248.393 Y59.943 E0.02355
G1 X241.350 Y101.977 E1.33633
G1 X241.176 Y102.544 E0.01858
G1 X240.866 Y103.053 E0.01870
G1 X240.376 Y103.513 E0.02107
G1 X219.339 Y118.211 E0.80462
G1 X51.206 Y199.001 E5.84873
M73 P0 R144
G1 X50.261 Y199.296 E0.03103
G1 X49.518 Y199.316 E0.02331
G1 X48.785 Y199.095 E0.02402
G1 X48.015 Y198.582 E0.02898
G1 X15.689 Y163.779 E1.48933
G1 X9.022 Y154.276 E0.36397
G1 X8.794 Y153.791 E0.01680
G1 X8.633 Y153.126 E0.02144
G1 X8.618 Y152.267 E0.02696
G1 X10.856 Y140.563 E0.37360
G1 X11.066 Y139.989 E0.01917
G1 X11.525 Y139.277 E0.02656
G1 X12.018 Y138.814 E0.02120
G1 X199.443 Y7.578 E7.17398
G1 X200.134 Y7.246 E0.02402
G1 X201.122 Y7.077 E0.03142
; printing object Holographic.stl id:0 copy 0
;WIPE_START
G1 F8640.000
G1 X205.186 Y7.717 E-0.95000
;WIPE_END
G1 E-0.05000 F2100.000
G1 Z0.400 F10800.000
G1 X225.492 Y31.362
G1 Z0.200
G1 E1.00000 F2100.000
;TYPE:Perimeter
G1 F1200.000
G1 X245.124 Y59.399 E1.07316
M73 Q0 S144
G1 X49.981 Y196.040 E7.46940
G1 X30.349 Y168.003 E1.07316
G1 X225.443 Y31.396 E7.46752
G1 X225.575 Y30.891 F10800.000
;TYPE:External perimeter
G1 F1200.000
G1 X225.675 Y30.965 E0.00388
G1 X245.560 Y59.363 E1.08699
G1 X245.595 Y59.482 E0.00388
G1 X245.521 Y59.581 E0.00388
G1 X50.017 Y196.475 E7.48323
G1 X49.898 Y196.510 E0.00388
G1 X49.799 Y196.437 E0.00388
G1 X29.914 Y168.038 E1.08699
M73 P0 R143
G1 X29.879 Y167.920 E0.00388
G1 X29.952 Y167.820 E0.00388
G1 X225.457 Y30.927 E7.48323
M73 P1 R143
M73 Q1 S144
G1 X225.518 Y30.908 E0.00200
G1 X225.612 Y31.009 F10800.000
;WIPE_START
G1 F8640.000
G1 X225.675 Y30.965 E-0.03852
G1 X227.939 Y34.199 E-0.91148
;WIPE_END
G1 E-0.05000 F2100.000
G1 Z0.400 F10800.000
G1 X227.262 Y34.086
G1 Z0.200
G1 E1.00000 F2100.000
;TYPE:Solid infill
;WIDTH:0.420206
G1 F1200.000
G1 X225.134 Y31.958 E0.09442
G1 X224.820 Y32.178 E0.01202
G1 X227.817 Y35.175 E0.13297
G1 X229.064 Y36.955 E0.06816
G1 X224.506 Y32.398 E0.20219
G1 X224.192 Y32.617 E0.01202
G1 X230.310 Y38.735 E0.27140
G1 X231.556 Y40.514 E0.06816
G1 X223.879 Y32.837 E0.34061
G1 X223.565 Y33.057 E0.01202
G1 X232.802 Y42.294 E0.40982
G1 X234.048 Y44.074 E0.06816
G1 X223.251 Y33.277 E0.47903
G1 X222.937 Y33.496 E0.01202
G1 X235.295 Y45.854 E0.54825
G1 X236.541 Y47.634 E0.06816
G1 X222.623 Y33.716 E0.61746
G1 X222.310 Y33.936 E0.01202
G1 X237.787 Y49.413 E0.68667
M73 Q1 S143
G1 X239.033 Y51.193 E0.06816
G1 X221.996 Y34.156 E0.75588
G1 X221.682 Y34.375 E0.01202
G1 X240.279 Y52.973 E0.82510
G1 X241.526 Y54.753 E0.06816
G1 X221.368 Y34.595 E0.89431
G1 X221.054 Y34.815 E0.01202
G1 X242.772 Y56.532 E0.96352
G1 X244.018 Y58.312 E0.06816
G1 X220.740 Y35.035 E1.03273
G1 X220.427 Y35.254 E0.01202
G1 X244.596 Y59.424 E1.07229
G1 X244.282 Y59.643 E0.01202
G1 X220.113 Y35.474 E1.07229
G1 X219.799 Y35.694 E0.01202
G1 X243.968 Y59.863 E1.07229
G1 X243.654 Y60.083 E0.01202
G1 X219.485 Y35.914 E1.07229
G1 X219.171 Y36.133 E0.01202
G1 X243.341 Y60.303 E1.07229
G1 X243.027 Y60.522 E0.01202
G1 X218.857 Y36.353 E1.07229
G1 X218.544 Y36.573 E0.01202
G1 X242.713 Y60.742 E1.07229
G1 X242.399 Y60.962 E0.01202
G1 X218.230 Y36.793 E1.07229
G1 X217.916 Y37.012 E0.01202
G1 X242.085 Y61.182 E1.07229
G1 X241.771 Y61.401 E0.01202
G1 X217.602 Y37.232 E1.07229
G1 X217.288 Y37.452 E0.01202
G1 X241.458 Y61.621 E1.07229
G1 X241.144 Y61.841 E0.01202
G1 X216.975 Y37.671 E1.07229
G1 X216.661 Y37.891 E0.01202
G1 X240.830 Y62.061 E1.07229
G1 X240.516 Y62.280 E0.01202
G1 X216.347 Y38.111 E1.07229
G1 X216.033 Y38.331 E0.01202
G1 X240.202 Y62.500 E1.07229
G1 X239.889 Y62.720 E0.01202
G1 X215.719 Y38.550 E1.07229
G1 X215.405 Y38.770 E0.01202
G1 X239.575 Y62.939 E1.07229
G1 X239.261 Y63.159 E0.01202
G1 X215.092 Y38.990 E1.07229
G1 X214.778 Y39.210 E0.01202
G1 X238.947 Y63.379 E1.07229
M73 P1 R142
G1 X238.633 Y63.599 E0.01202
G1 X214.464 Y39.429 E1.07229
G1 X214.150 Y39.649 E0.01202
G1 X238.319 Y63.818 E1.07229
G1 X238.006 Y64.038 E0.01202
G1 X213.836 Y39.869 E1.07229
G1 X213.523 Y40.089 E0.01202
G1 X237.692 Y64.258 E1.07229
G1 X237.378 Y64.478 E0.01202
G1 X213.209 Y40.308 E1.07229
G1 X212.895 Y40.528 E0.01202
G1 X237.064 Y64.697 E1.07229
G1 X236.750 Y64.917 E0.01202
G1 X212.581 Y40.748 E1.07229
G1 X212.267 Y40.968 E0.01202
G1 X236.437 Y65.137 E1.07229
G1 X236.123 Y65.357 E0.01202
G1 X211.953 Y41.187 E1.07229
G1 X211.640 Y41.407 E0.01202
G1 X235.809 Y65.576 E1.07229
G1 X235.495 Y65.796 E0.01202
G1 X211.326 Y41.627 E1.07229
M73 Q1 S142
G1 X211.012 Y41.847 E0.01202
G1 X235.181 Y66.016 E1.07229
G1 X234.867 Y66.236 E0.01202
G1 X210.698 Y42.066 E1.07229
G1 X210.384 Y42.286 E0.01202
G1 X234.554 Y66.455 E1.07229
G1 X234.240 Y66.675 E0.01202
G1 X210.070 Y42.506 E1.07229
G1 X209.757 Y42.726 E0.01202
G1 X233.926 Y66.895 E1.07229
G1 X233.612 Y67.115 E0.01202
G1 X209.443 Y42.945 E1.07229
G1 X209.129 Y43.165 E0.01202
G1 X233.298 Y67.334 E1.07229
G1 X232.984 Y67.554 E0.01202
G1 X208.815 Y43.385 E1.07229
M73 P2 R142
M73 Q2 S142
G1 X208.501 Y43.604 E0.01202
G1 X232.671 Y67.774 E1.07229
G1 X232.357 Y67.994 E0.01202
G1 X208.188 Y43.824 E1.07229
G1 X207.874 Y44.044 E0.01202
G1 X232.043 Y68.213 E1.07229
G1 X231.729 Y68.433 E0.01202
G1 X207.560 Y44.264 E1.07229
G1 X207.246 Y44.483 E0.01202
G1 X231.415 Y68.653 E1.07229
G1 X231.102 Y68.872 E0.01202
G1 X206.932 Y44.703 E1.07229
G1 X206.618 Y44.923 E0.01202
G1 X230.788 Y69.092 E1.07229
G1 X230.474 Y69.312 E0.01202
G1 X206.305 Y45.143 E1.07229
G1 X205.991 Y45.362 E0.01202
G1 X230.160 Y69.532 E1.07229
G1 X229.846 Y69.751 E0.01202
G1 X205.677 Y45.582 E1.07229
G1 X205.363 Y45.802 E0.01202
G1 X229.532 Y69.971 E1.07229
G1 X229.219 Y70.191 E0.01202
G1 X205.049 Y46.022 E1.07229
G1 X204.735 Y46.241 E0.01202
G1 X228.905 Y70.411 E1.07229
G1 X228.591 Y70.630 E0.01202
G1 X204.422 Y46.461 E1.07229
G1 X204.108 Y46.681 E0.01202
G1 X228.277 Y70.850 E1.07229
G1 X227.963 Y71.070 E0.01202
G1 X203.794 Y46.901 E1.07229
M73 P2 R141
G1 X203.480 Y47.120 E0.01202
G1 X227.649 Y71.290 E1.07229
G1 X227.336 Y71.509 E0.01202
G1 X203.166 Y47.340 E1.07229
G1 X202.853 Y47.560 E0.01202
G1 X227.022 Y71.729 E1.07229
G1 X226.708 Y71.949 E0.01202
G1 X202.539 Y47.780 E1.07229
G1 X202.225 Y47.999 E0.01202
G1 X226.394 Y72.169 E1.07229
G1 X226.080 Y72.388 E0.01202
G1 X201.911 Y48.219 E1.07229
G1 X201.597 Y48.439 E0.01202
G1 X225.767 Y72.608 E1.07229
G1 X225.453 Y72.828 E0.01202
G1 X201.283 Y48.659 E1.07229
G1 X200.970 Y48.878 E0.01202
G1 X225.139 Y73.048 E1.07229
G1 X224.825 Y73.267 E0.01202
G1 X200.656 Y49.098 E1.07229
G1 X200.342 Y49.318 E0.01202
G1 X224.511 Y73.487 E1.07229
M73 Q2 S141
G1 X224.197 Y73.707 E0.01202
G1 X200.028 Y49.537 E1.07229
G1 X199.714 Y49.757 E0.01202
G1 X223.884 Y73.927 E1.07229
G1 X223.570 Y74.146 E0.01202
G1 X199.401 Y49.977 E1.07229
G1 X199.087 Y50.197 E0.01202
G1 X223.256 Y74.366 E1.07229
G1 X222.942 Y74.586 E0.01202
G1 X198.773 Y50.416 E1.07229
G1 X198.459 Y50.636 E0.01202
G1 X222.628 Y74.805 E1.07229
G1 X222.315 Y75.025 E0.01202
G1 X198.145 Y50.856 E1.07229
G1 X197.831 Y51.076 E0.01202
G1 X222.001 Y75.245 E1.07229
G1 X221.687 Y75.465 E0.01202
G1 X197.518 Y51.295 E1.07229
G1 X197.204 Y51.515 E0.01202
G1 X221.373 Y75.684 E1.07229
G1 X221.059 Y75.904 E0.01202
G1 X196.890 Y51.735 E1.07229
G1 X196.576 Y51.955 E0.01202
G1 X220.745 Y76.124 E1.07229
G1 X220.432 Y76.344 E0.01202
G1 X196.262 Y52.174 E1.07229
G1 X195.948 Y52.394 E0.01202
G1 X220.118 Y76.563 E1.07229
G1 X219.804 Y76.783 E0.01202
G1 X195.635 Y52.614 E1.07229
G1 X195.321 Y52.834 E0.01202
G1 X219.490 Y77.003 E1.07229
G1 X219.176 Y77.223 E0.01202
G1 X195.007 Y53.053 E1.07229
G1 X194.693 Y53.273 E0.01202
G1 X218.862 Y77.442 E1.07229
G1 X218.549 Y77.662 E0.01202
G1 X194.379 Y53.493 E1.07229
G1 X194.066 Y53.713 E0.01202
G1 X218.235 Y77.882 E1.07229
G1 X217.921 Y78.102 E0.01202
G1 X193.752 Y53.932 E1.07229
G1 X193.438 Y54.152 E0.01202
G1 X217.607 Y78.321 E1.07229
G1 X217.293 Y78.541 E0.01202
G1 X193.124 Y54.372 E1.07229
M73 P3 R140
M73 Q3 S141
G1 X192.810 Y54.592 E0.01202
G1 X216.980 Y78.761 E1.07229
G1 X216.666 Y78.981 E0.01202
G1 X192.496 Y54.811 E1.07229
G1 X192.183 Y55.031 E0.01202
G1 X216.352 Y79.200 E1.07229
G1 X216.038 Y79.420 E0.01202
G1 X191.869 Y55.251 E1.07229
G1 X191.555 Y55.470 E0.01202
G1 X215.724 Y79.640 E1.07229
G1 X215.410 Y79.860 E0.01202
G1 X191.241 Y55.690 E1.07229
G1 X190.927 Y55.910 E0.01202
G1 X215.097 Y80.079 E1.07229
G1 X214.783 Y80.299 E0.01202
G1 X190.613 Y56.130 E1.07229
G1 X190.300 Y56.349 E0.01202
G1 X214.469 Y80.519 E1.07229
G1 X214.155 Y80.738 E0.01202
G1 X189.986 Y56.569 E1.07229
G1 X189.672 Y56.789 E0.01202
G1 X213.841 Y80.958 E1.07229
M73 Q3 S140
G1 X213.527 Y81.178 E0.01202
G1 X189.358 Y57.009 E1.07229
G1 X189.044 Y57.228 E0.01202
G1 X213.214 Y81.398 E1.07229
G1 X212.900 Y81.617 E0.01202
G1 X188.731 Y57.448 E1.07229
G1 X188.417 Y57.668 E0.01202
G1 X212.586 Y81.837 E1.07229
G1 X212.272 Y82.057 E0.01202
G1 X188.103 Y57.888 E1.07229
G1 X187.789 Y58.107 E0.01202
G1 X211.958 Y82.277 E1.07229
G1 X211.645 Y82.496 E0.01202
G1 X187.475 Y58.327 E1.07229
G1 X187.161 Y58.547 E0.01202
G1 X211.331 Y82.716 E1.07229
G1 X211.017 Y82.936 E0.01202
G1 X186.848 Y58.767 E1.07229
G1 X186.534 Y58.986 E0.01202
G1 X210.703 Y83.156 E1.07229
G1 X210.389 Y83.375 E0.01202
G1 X186.220 Y59.206 E1.07229
G1 X185.906 Y59.426 E0.01202
G1 X210.075 Y83.595 E1.07229
G1 X209.762 Y83.815 E0.01202
G1 X185.592 Y59.646 E1.07229
G1 X185.279 Y59.865 E0.01202
G1 X209.448 Y84.035 E1.07229
G1 X209.134 Y84.254 E0.01202
G1 X184.965 Y60.085 E1.07229
G1 X184.651 Y60.305 E0.01202
G1 X208.820 Y84.474 E1.07229
G1 X208.506 Y84.694 E0.01202
G1 X184.337 Y60.525 E1.07229
G1 X184.023 Y60.744 E0.01202
G1 X208.193 Y84.914 E1.07229
G1 X207.879 Y85.133 E0.01202
G1 X183.709 Y60.964 E1.07229
G1 X183.396 Y61.184 E0.01202
G1 X207.565 Y85.353 E1.07229
G1 X207.251 Y85.573 E0.01202
G1 X183.082 Y61.403 E1.07229
G1 X182.768 Y61.623 E0.01202
G1 X206.937 Y85.793 E1.07229
G1 X206.623 Y86.012 E0.01202
G1 X182.454 Y61.843 E1.07229
G1 X182.140 Y62.063 E0.01202
G1 X206.310 Y86.232 E1.07229
M73 P3 R139
G1 X205.996 Y86.452 E0.01202
G1 X181.826 Y62.282 E1.07229
G1 X181.513 Y62.502 E0.01202
G1 X205.682 Y86.671 E1.07229
G1 X205.368 Y86.891 E0.01202
G1 X181.199 Y62.722 E1.07229
G1 X180.885 Y62.942 E0.01202
G1 X205.054 Y87.111 E1.07229
G1 X204.740 Y87.331 E0.01202
G1 X180.571 Y63.161 E1.07229
G1 X180.257 Y63.381 E0.01202
G1 X204.427 Y87.550 E1.07229
G1 X204.113 Y87.770 E0.01202
G1 X179.944 Y63.601 E1.07229
G1 X179.630 Y63.821 E0.01202
G1 X203.799 Y87.990 E1.07229
G1 X203.485 Y88.210 E0.01202
G1 X179.316 Y64.040 E1.07229
G1 X179.002 Y64.260 E0.01202
G1 X203.171 Y88.429 E1.07229
G1 X202.858 Y88.649 E0.01202
G1 X178.688 Y64.480 E1.07229
M73 Q3 S139
G1 X178.374 Y64.700 E0.01202
G1 X202.544 Y88.869 E1.07229
G1 X202.230 Y89.089 E0.01202
G1 X178.061 Y64.919 E1.07229
G1 X177.747 Y65.139 E0.01202
G1 X201.916 Y89.308 E1.07229
G1 X201.602 Y89.528 E0.01202
G1 X177.433 Y65.359 E1.07229
M73 P4 R139
M73 Q4 S139
G1 X177.119 Y65.579 E0.01202
G1 X201.288 Y89.748 E1.07229
G1 X200.975 Y89.968 E0.01202
G1 X176.805 Y65.798 E1.07229
G1 X176.491 Y66.018 E0.01202
G1 X200.661 Y90.187 E1.07229
G1 X200.347 Y90.407 E0.01202
G1 X176.178 Y66.238 E1.07229
G1 X175.864 Y66.458 E0.01202
G1 X200.033 Y90.627 E1.07229
G1 X199.719 Y90.847 E0.01202
G1 X175.550 Y66.677 E1.07229
G1 X175.236 Y66.897 E0.01202
G1 X199.405 Y91.066 E1.07229
G1 X199.092 Y91.286 E0.01202
G1 X174.922 Y67.117 E1.07229
G1 X174.609 Y67.336 E0.01202
G1 X198.778 Y91.506 E1.07229
G1 X198.464 Y91.726 E0.01202
G1 X174.295 Y67.556 E1.07229
G1 X173.981 Y67.776 E0.01202
G1 X198.150 Y91.945 E1.07229
G1 X197.836 Y92.165 E0.01202
G1 X173.667 Y67.996 E1.07229
G1 X173.353 Y68.215 E0.01202
G1 X197.523 Y92.385 E1.07229
G1 X197.209 Y92.604 E0.01202
G1 X173.039 Y68.435 E1.07229
G1 X172.726 Y68.655 E0.01202
G1 X196.895 Y92.824 E1.07229
G1 X196.581 Y93.044 E0.01202
G1 X172.412 Y68.875 E1.07229
G1 X172.098 Y69.094 E0.01202
G1 X196.267 Y93.264 E1.07229
G1 X195.953 Y93.483 E0.01202
G1 X171.784 Y69.314 E1.07229
G1 X171.470 Y69.534 E0.01202
G1 X195.640 Y93.703 E1.07229
M73 P4 R138
G1 X195.326 Y93.923 E0.01202
G1 X171.157 Y69.754 E1.07229
G1 X170.843 Y69.973 E0.01202
G1 X195.012 Y94.143 E1.07229
G1 X194.698 Y94.362 E0.01202
G1 X170.529 Y70.193 E1.07229
G1 X170.215 Y70.413 E0.01202
G1 X194.384 Y94.582 E1.07229
G1 X194.071 Y94.802 E0.01202
G1 X169.901 Y70.633 E1.07229
G1 X169.587 Y70.852 E0.01202
G1 X193.757 Y95.022 E1.07229
G1 X193.443 Y95.241 E0.01202
G1 X169.274 Y71.072 E1.07229
G1 X168.960 Y71.292 E0.01202
G1 X193.129 Y95.461 E1.07229
G1 X192.815 Y95.681 E0.01202
G1 X168.646 Y71.512 E1.07229
G1 X168.332 Y71.731 E0.01202
G1 X192.501 Y95.901 E1.07229
G1 X192.188 Y96.120 E0.01202
G1 X168.018 Y71.951 E1.07229
M73 Q4 S138
G1 X167.704 Y72.171 E0.01202
G1 X191.874 Y96.340 E1.07229
G1 X191.560 Y96.560 E0.01202
G1 X167.391 Y72.391 E1.07229
G1 X167.077 Y72.610 E0.01202
G1 X191.246 Y96.780 E1.07229
G1 X190.932 Y96.999 E0.01202
G1 X166.763 Y72.830 E1.07229
G1 X166.449 Y73.050 E0.01202
G1 X190.618 Y97.219 E1.07229
G1 X190.305 Y97.439 E0.01202
G1 X166.135 Y73.269 E1.07229
G1 X165.822 Y73.489 E0.01202
G1 X189.991 Y97.659 E1.07229
G1 X189.677 Y97.878 E0.01202
G1 X165.508 Y73.709 E1.07229
G1 X165.194 Y73.929 E0.01202
G1 X189.363 Y98.098 E1.07229
G1 X189.049 Y98.318 E0.01202
G1 X164.880 Y74.148 E1.07229
G1 X164.566 Y74.368 E0.01202
G1 X188.736 Y98.537 E1.07229
G1 X188.422 Y98.757 E0.01202
G1 X164.252 Y74.588 E1.07229
G1 X163.939 Y74.808 E0.01202
G1 X188.108 Y98.977 E1.07229
G1 X187.794 Y99.197 E0.01202
G1 X163.625 Y75.027 E1.07229
G1 X163.311 Y75.247 E0.01202
G1 X187.480 Y99.416 E1.07229
G1 X187.166 Y99.636 E0.01202
G1 X162.997 Y75.467 E1.07229
G1 X162.683 Y75.687 E0.01202
G1 X186.853 Y99.856 E1.07229
G1 X186.539 Y100.076 E0.01202
G1 X162.369 Y75.906 E1.07229
G1 X162.056 Y76.126 E0.01202
G1 X186.225 Y100.295 E1.07229
G1 X185.911 Y100.515 E0.01202
G1 X161.742 Y76.346 E1.07229
M73 P5 R138
M73 Q5 S138
G1 X161.428 Y76.566 E0.01202
G1 X185.597 Y100.735 E1.07229
G1 X185.283 Y100.955 E0.01202
G1 X161.114 Y76.785 E1.07229
G1 X160.800 Y77.005 E0.01202
G1 X184.970 Y101.174 E1.07229
G1 X184.656 Y101.394 E0.01202
G1 X160.487 Y77.225 E1.07229
M73 P5 R137
G1 X160.173 Y77.445 E0.01202
G1 X184.342 Y101.614 E1.07229
G1 X184.028 Y101.834 E0.01202
